X: 26524
T: Michael Turner's
R: waltz
M: 3/4
K: Gmajor
|:GA|B2 BG cA|d2 d2 gf|e2 ef ge|d2 d2 GA|
B2 BG cA|d2 d2 cA|G2 GB AF|G4:|
|:AB|c2 cd Bc|A2 A2 Bc|d2 de cd|B2 B2 gf|
e2 ef ge|d2 d2 GA|B2 Bc AB|G4:|
|:GA|B2 BD cD|d2 d2 gf|e2 e2 ge|d2 d2 GA|
B2 BD cD|d2 d2 cA|G2 G2 AB|G4:|
|:AB|c2 cd Bc|A2 A2 Bc|d2 de cd|B2 B2 gf|
e2 e2 ge|d2 d2 GA|B2 Bc AB|G4:|

